X:1
T:James Gibb editions
T:Psalm 67 (Becker) - Schütz
%%score [ ( 1 2 ) ( 3 4 ) ]
L:1/8
Q:1/4=100
M:2/2
K:C
V:1 treble nm="Soprano Alto"
V:2 treble 
V:3 bass nm="Tenor Bass"
V:4 bass 
V:1
"^Cornelius Becker\n(1561-1604)""^Psalm 67, SWV 164""^Heinrich Schütz\n(1585-1672)" B4 c2 B2 | %1
w: ~Es woll uns|
w: sein Ant- litz|
 A2 B2 d4 | e4 (d3 c | B4) d4 | c2 B2 c2 A2 | (G2 D2 =F2 G2) | E4 :|[M:2/2] G4 F2 E2 | %8
w: Gott ge- nä-|dig sein *|* und|sei- nen Se- gen|ge * * *|ben,|daß wir er-|
w: uns mit hel-|lem Schein *|* er-|leucht zum ew- gen|Le\- * * *|ben,||
 D2 E2 C2 D2 | E4 B4 | c2 A2 G2 A2 | c4 B4 | e4 d2 B2 | d2 A2 G2 F2 | E2 D2 G2 A2 | B2 d2 B4 | %16
w: ken- nen sei- ne|Werk und|was ihm lieb auf|Er- den,|und Je- sus||||
w: ||||||||
 A4 c4 | B2 A2 G2 D2 | (!courtesy!=F2 G2) E4- | E8 |] %20
w: |* * * be-|keh\- * ren.||
w: ||||
V:2
 E4 E2 E2 | E2 G2 ^F4 | G4 (^F4 | G4) G4 | G2 G2 E2 D2 | (D2 B,2 D4) | ^C4 :|[M:2/2] E4 =C2 C2 | %8
w: ||||||||
 B,2 G,2 A,2 B,2 | C4 D4 | E2 F2 G2 F2 | E4 E4 | =G4 G2 D2 | F2 F2 D2 D2 | ^C2 D2 E2 E2 | %15
w: |||||Chri- stus Heil und|Stärk be- kannt den|
 G2 A2 G4 | ^F4 E4 | D2 D2 D2 B,2 | (D4 C4) | B,8 |] %20
w: Hei- den wer-|den, und|sie zu Gott be-|keh\- *|ren.|
V:3
 ^G,4 A,2 B,2 | C2 E2 A,4 | C4 (A,4 | G,4) B,4 | E2 D2 G,2 ^F,2 | (G,4 A,2 B,2) | A,4 :| %7
[M:2/2] B,4 A,2 G,2 | G,2 E,2 E,2 G,2 | G,4 G,4 | G,2 D2 B,2 D2 | (C>B, A,2) ^G,4 | %12
 C4 B,2 !courtesy!=G,2 | A,2 D2 _B,2 A,2 | %14
"^2. So danken, Gott, und loben dich die Heiden überalle,\nund alle Welt die freue sich und sing mit großem Schalle,\ndaß du auf Erden Richter bist und läßt die Sünd nicht walten,\ndein Wort die Hut und Weide ist, die alles Volk erhalten,\nin rechter Bahn zu wallen.\n\n3. Es danke, Gott, und lobe dich das Volk in guten Taten,\ndas Land bringt Frucht und bessert sich, dein Wort ist wohl geraten,\nuns segne Vater und der Sohn, uns segne Gott der heilge Geist,\ndem alle Welt die Ehre tu, vor ihm sich fürchte all'rmeist,\nnun sprecht von Herzen Amen." A,2 A,2 C2 C2 | %15
 B,2 A,2 D4 | D4 G,4 | G,2 ^F,2 G,2 G,2 | (A,2 B,2 A,4) | ^G,8 |] %20
V:4
 E,4 A,2 ^G,2 | A,2 E,2 D,4 | C,4 (D,4 | G,,4) G,4 | C,2 G,,2 C,2 D,2 | (G,,4 D,2 G,,2) | A,,4 :| %7
[M:2/2] E,4 =F,2 C,2 | G,,2 C,2 A,,2 G,,2 | C,4 G,,4 | C,2 D,2 E,2 D,2 | A,,4 E,4 | C,4 =G,2 G,2 | %13
 D,2 D,2 G,,2 D,2 | A,,2 D,2 C,2 A,,2 | E,2 ^F,2 G,4 | D,4 C,4 | G,2 D,2 G,,2 G,,2 | %18
 (D,2 G,,2 A,,4) | E,8 |] %20

